src/actions/24/format-border-style.svg

<svg xmlns="http://www.w3.org/2000/svg" viewBox="0 0 24 24">
  <defs id="defs3051">
    <style type="text/css" id="current-color-scheme">
      .ColorScheme-Text {
        color:#363636;
      }
      </style>
  </defs>
 <path style="fill:currentColor;fill-opacity:1;stroke:none" 
     d="M 12.996094 4.0019531 L 5.6699219 11.328125 L 5.6679688 11.324219 L 4.2539062 12.738281 L 4.2558594 12.742188 L 4.0058594 12.992188 L 4 12.992188 L 4 17 L 5 17 L 7 17 L 8.0078125 17 L 8.2597656 16.748047 L 8.6132812 16.394531 L 9.3203125 15.6875 L 9.6757812 15.333984 L 16.998047 8.0039062 L 13 4.0039062 L 12.996094 4.0019531 z M 12.412109 5.9980469 L 15 8.5878906 L 10.732422 12.855469 L 8.1445312 10.265625 L 12.412109 5.9980469 z M 7.4375 10.972656 L 10.025391 13.5625 L 9.3183594 14.269531 L 6.7285156 11.679688 L 7.0019531 11.408203 L 7.4375 10.972656 z M 6.0214844 12.386719 L 8.6113281 14.976562 L 8.6152344 14.978516 L 7.9082031 15.685547 L 7.9042969 15.683594 L 5.3144531 13.09375 L 6.0214844 12.386719 z M 4 19 L 4 20 L 20 20 L 20 19 L 4 19 z "
     class="ColorScheme-Text"
     />
</svg>

<svg xmlns="http://www.w3.org/2000/svg" viewBox="0 0 24 24">
    <path d="M12.996 4.002 5.67 11.328l-.002-.004-1.414 1.414.002.004-.25.25H4V17h4.008l.252-.252.353-.353.707-.707.356-.354 7.322-7.33-3.998-4-.004-.002zm-.584 1.996L15 8.588l-4.268 4.267-2.587-2.59 4.267-4.267zm-4.975 4.975 2.588 2.59-.707.707-2.59-2.59.274-.272.436-.435zm-1.416 1.414 2.59 2.59.004.002-.707.707-.004-.002-2.59-2.59.707-.707zM4 19v1h16v-1H4z" style="fill:currentColor;fill-opacity:1;stroke:none;color:#050505;opacity:.7"/>
</svg>
